X:1
T:Rounding the Horn
M:4/4
L:1/4
K:G
 A| G3/2 F/2D/2 D3/2| A3/2 B/2 cE/2-F/2| GA/2-G/2 D D| D3 A| d3/2 d/2c/2-B/2 A|\
 dd/2-c/2 A D| GA/2-B/2 c B| A3 A/2A/2| d dc/2-B/2 A| d3/2- c/2 A D|\
 GA/2-B/2 c B| A3 A| G3/2 F/2 D D|A/2-B/2 c2E/2-F/2| GA/2-G/2 D D|\
 D3||

